svg/outline/amex.svg

<svg height="471" viewBox="0 0 750 471" width="750" xmlns="http://www.w3.org/2000/svg"><g fill="#393939"><path d="m52.8846154 28.2035928c-13.2760757 0-24.0384616 10.5226489-24.0384616 23.502994v367.5868262c0 12.980345 10.7623859 23.502994 24.0384616 23.502994h644.2307696c13.276075 0 24.038461-10.522649 24.038461-23.502994v-367.5868262c0-12.9803451-10.762386-23.502994-24.038461-23.502994zm0-28.2035928h644.2307696c29.207366 0 52.884615 23.1498275 52.884615 51.7065868v367.5868262c0 28.55676-23.677249 51.706587-52.884615 51.706587h-644.2307696c-29.2073666 0-52.8846154-23.149827-52.8846154-51.706587v-367.5868262c0-28.5567593 23.6772488-51.7065868 52.8846154-51.7065868z"/><g transform="translate(27 109)"><path d="m1.00185169 114.13736h33.33191811l7.5156827-18.0519432h16.8259719l7.495989 18.0519432h65.5831326v-13.801255l5.854011 13.860087h34.045822l5.85401-14.066002v14.00717h162.986679l-.076315-29.6322499h3.153486c2.208178.0759931 2.853153.2794573 2.853153 3.9099473v25.7223026h84.297257v-6.898176c6.799318 3.628038 17.37494 6.898176 31.291138 6.898176h35.463782l7.589536-18.0519432h16.825971l7.422138 18.0519432h68.340278v-17.1473849l10.349142 17.1473849h54.763799v-113.351688h-54.197599v13.3869715l-7.589535-13.3869715h-55.613099v13.3869715l-6.969178-13.3869715h-75.119901c-12.574553 0-23.627752 1.74783209-32.556472 6.61871863v-6.61871863h-51.839255v6.61871863c-5.681689-5.02041985-13.423852-6.61871863-22.032546-6.61871863h-189.388807l-12.707486 29.2767992-13.049668-29.2767992h-59.6528089v13.3869715l-6.5531434-13.3869715h-50.8742554l-23.6252893 53.8935308v59.4581572zm210.40219331-16.3501088h-19.999151l-.073851-63.6524642-28.28782 63.6524642h-17.128765l-28.361671-63.7088451v63.7088451h-39.678276l-7.4959891-18.127936h-40.6186594l-7.5723028 18.127936h-21.1881697l34.9345088-81.2729637h28.9844905l33.1792905 76.9487333v-76.9487333h31.8401052l25.530673 55.1339274 23.452969-55.1339274h32.480156v81.2729637zm-147.6927537-34.9949203-13.352461-32.3998537-13.2761473 32.3998537zm227.2843317 34.9949203h-65.169561v-81.2729637h65.169561v16.9243091h-45.660296v14.6494302h44.564823v16.6595603h-44.564823v16.2305696h45.660296zm91.837985-59.3846156c0 12.95798-8.685008 19.6526917-13.746339 21.6628207 4.268652 1.6179091 7.914484 4.4762156 9.650008 6.844246 2.754685 4.0423213 3.2298 7.6532 3.2298 14.9117282v15.9658207h-19.676664l-.073852-10.2492086c0-4.8904978.470192-11.9234995-3.079632-15.8334468-2.850692-2.8583056-7.195658-3.4785039-14.218993-3.4785039h-20.941997v29.5611593h-19.506803v-81.2729637h44.870079c9.970035 0 17.315858.262297 23.622828 3.892787 6.171575 3.63049 9.871565 8.9303671 9.871565 17.9955611zm-24.660643 12.0683434c-2.680832 1.6203609-5.851549 1.6742909-9.650009 1.6742909h-23.699142v-18.0519429h24.021629c3.399659 0 6.947022.1519861 9.251208 1.4659238 2.530666 1.1840157 4.09633 3.7040312 4.09633 7.184987 0 3.552046-1.489351 6.4103516-4.020016 7.7267412zm55.947402 47.3162722h-19.905605v-81.2729637h19.905605zm231.075355 0h-27.645306l-36.97775-61.0000737v61.0000737h-39.729972l-7.591997-18.127936h-40.525113l-7.365517 18.127936h-22.827686c-9.482612 0-21.488503-2.088574-28.28782-8.9892008-6.855937-6.9006269-10.422994-16.247729-10.422994-31.0270832 0-12.0534216 2.131865-23.0723628 10.516541-31.7796555 6.306969-6.4863437 16.183458-9.4770242 29.627003-9.4770242h18.886446v17.4145844h-18.490106c-7.119344 0-11.13936 1.0540916-15.011672 4.8145047-3.325807 3.422123-5.607836 9.8913073-5.607836 18.4098442 0 8.7072917 1.737986 14.9852693 5.364125 19.0864233 3.003318 3.2162069 8.460989 4.1918556 13.596172 4.1918556h8.761322l27.49514-63.9147613h29.230664l33.029124 76.8727412v-76.8727412h29.703318l34.291995 56.6023022v-56.6023022h19.981919zm-118.58024-34.9949203-13.500165-32.3998537-13.426313 32.3998537z"/><path d="m694.908287 227.558349c-4.738844 6.900628-13.972819 10.398743-26.473519 10.398743h-37.674422v-17.431744h37.521795c3.722146 0 6.326663-.487824 7.89479-2.012581 1.358879-1.257557 2.306647-3.083833 2.306647-5.302329 0-2.36803-.947768-4.248237-2.382961-5.37587-1.415499-1.240398-3.475973-1.804214-6.87317-1.804214-18.317784-.620198-41.170088.563816-41.170088-25.160937 0-11.791125 7.518144-24.202448 27.989948-24.202448h38.858518l.002462-16.174188h-36.106295c-10.895648 0-18.810132 2.59846-24.415507 6.63833v-6.63833h-53.40246c-8.539765 0-18.563957 2.108184-23.305263 6.63833v-6.63833h-95.362765v6.63833c-7.589535-5.451863-20.39549-6.63833-26.30612-6.63833h-62.902303v6.63833c-6.004176-5.790154-19.356637-6.63833-27.49514-6.63833h-70.39829l-16.109607 17.360654-15.087986-17.360654h-105.160477v113.430132h103.181241l16.599492-17.635209 15.636954 17.635209 63.601435.056381v-26.683242h6.252812c8.438833.129923 18.391636-.208367 27.172651-3.988391v30.6128h52.459614v-29.56361h2.530665c3.2298 0 3.547364.132374 3.547364 3.346129v26.21503h159.363001c10.117739 0 20.693361-2.578849 26.549833-7.258528v7.258528h50.549306c10.519002 0 20.79183-1.468375 28.607845-5.228788zm-315.98139-43.630443c0 22.582088-16.919518 27.244608-33.97197 27.244608h-24.341654v27.266669h-37.918134l-24.021629-26.91122-24.964475 26.91122h-77.273921v-81.292574h78.462941l24.001935 26.646471 24.814308-26.646471h62.336102c15.481864 0 32.876497 4.267848 32.876497 26.781297zm-155.097835 37.412091h-47.964483v-16.174188h42.829299v-16.586019h-42.829299v-14.779354h48.909789l21.338336 23.690111zm77.284372 9.308294-29.951953-33.113204 29.951953-32.061564zm44.294965-36.145974h-25.210648v-20.701881h25.437128c7.04303 0 11.932038 2.858306 11.932038 9.9673 0 7.03055-4.662529 10.734581-12.158518 10.734581zm132.075501-37.355708h65.11048v16.811545h-45.682452v14.779355h44.567285v16.586019h-44.567285v16.174186l45.682452.073542v16.867927h-65.11048zm-25.031485 43.514398c4.342503 1.595847 7.892328 4.456605 9.556462 6.824635 2.754684 3.96878 3.153485 7.672811 3.232261 14.838187v16.115354h-19.585579v-10.170764c0-4.890498.472654-12.131866-3.153485-15.911891-2.850692-2.912235-7.195657-3.608426-14.312539-3.608426h-20.84845v29.691081h-19.602811v-81.292574h45.039939c9.876489 0 17.069684.433893 23.472662 3.836405 6.156804 3.704031 10.029115 8.778382 10.029115 18.051943-.002461 12.97514-8.692393 19.59631-13.827575 21.62605zm-11.027545-10.277003c-2.609441 1.541916-5.836778 1.674291-9.632777 1.674291h-23.699141v-18.257859h24.021629c3.473511 0 6.949484.073542 9.310289 1.468376 2.528204 1.316389 4.03971 3.833954 4.03971 7.312458 0 3.478505-1.511506 6.280428-4.03971 7.802734zm176.111734 5.178138c3.79846 3.91485 5.834317 8.856827 5.834317 17.223378 0 17.488126-10.971962 25.651212-30.646163 25.651212h-37.99691v-17.431744h37.844283c3.69999 0 6.324202-.487824 7.968641-2.012581 1.341647-1.257556 2.304186-3.083833 2.304186-5.302329 0-2.368031-1.041315-4.248237-2.380499-5.375871-1.491813-1.240396-3.549825-1.804213-6.947022-1.804213-18.243932-.620199-41.091313.563817-41.091313-25.160937 0-11.791125 7.439369-24.202448 27.891479-24.202448h39.109615v17.301821h-35.78627c-3.547362 0-5.85401.132375-7.816014 1.468375-2.136788 1.31639-2.929467 3.270137-2.929467 5.848986 0 3.066673 1.8143 5.152795 4.268652 6.054902 2.058011.713351 4.268651.921718 7.591996.921718l10.50177.281909c10.590392.257394 17.859901 2.081219 22.278719 6.537822zm77.411983-21.761706h-35.554866c-3.549825 0-5.908169.132375-7.89479 1.468376-2.058013 1.316389-2.850692 3.270137-2.850692 5.848986 0 3.066672 1.737987 5.152795 4.26619 6.054902 2.058012.713351 4.268652.921718 7.518145.921718l10.57316.281908c10.669167.262297 17.790972 2.088573 22.133477 6.542725.790217.6202 1.265332 1.31639 1.809376 2.012581z"/></g></g></svg>

<svg width="750" height="471" viewBox="0 0 750 471" version="1.1" xmlns="http://www.w3.org/2000/svg" xmlns:xlink="http://www.w3.org/1999/xlink">
    <!-- Generator: Sketch 48.2 (47327) - http://www.bohemiancoding.com/sketch -->
    <desc>Created with Sketch.</desc>
    <defs></defs>
    <g id="Page-1" stroke="none" stroke-width="1" fill="none" fill-rule="evenodd">
        <g id="amex" fill="#393939" fill-rule="nonzero">
            <path d="M52.8846154,28.2035928 C39.6085397,28.2035928 28.8461538,38.7262417 28.8461538,51.7065868 L28.8461538,419.293413 C28.8461538,432.273758 39.6085397,442.796407 52.8846154,442.796407 L697.115385,442.796407 C710.39146,442.796407 721.153846,432.273758 721.153846,419.293413 L721.153846,51.7065868 C721.153846,38.7262417 710.39146,28.2035928 697.115385,28.2035928 L52.8846154,28.2035928 Z M52.8846154,0 L697.115385,0 C726.322751,-5.0099645e-15 750,23.1498275 750,51.7065868 L750,419.293413 C750,447.850173 726.322751,471 697.115385,471 L52.8846154,471 C23.6772488,471 3.41607085e-15,447.850173 0,419.293413 L0,51.7065868 C-3.41607085e-15,23.1498275 23.6772488,5.0099645e-15 52.8846154,0 Z" id="Rectangle-1"></path>
            <g id="Group" transform="translate(27.000000, 109.000000)">
                <path d="M1.00185169,114.13736 L34.3337698,114.13736 L41.8494525,96.0854168 L58.6754244,96.0854168 L66.1714134,114.13736 L131.754546,114.13736 L131.754546,100.336105 L137.608557,114.196192 L171.654379,114.196192 L177.508389,100.13019 L177.508389,114.13736 L340.495068,114.13736 L340.418753,84.5051101 L343.572239,84.5051101 C345.780417,84.5811032 346.425392,84.7845674 346.425392,88.4150574 L346.425392,114.13736 L430.722649,114.13736 L430.722649,107.239184 C437.521967,110.867222 448.097589,114.13736 462.013787,114.13736 L497.477569,114.13736 L505.067105,96.0854168 L521.893076,96.0854168 L529.315214,114.13736 L597.655492,114.13736 L597.655492,96.9899751 L608.004634,114.13736 L662.768433,114.13736 L662.768433,0.785672 L608.570834,0.785672 L608.570834,14.1726435 L600.981299,0.785672 L545.3682,0.785672 L545.3682,14.1726435 L538.399022,0.785672 L463.279121,0.785672 C450.704568,0.785672 439.651369,2.53350409 430.722649,7.40439063 L430.722649,0.785672 L378.883394,0.785672 L378.883394,7.40439063 C373.201705,2.38397078 365.459542,0.785672 356.850848,0.785672 L167.462041,0.785672 L154.754555,30.0624712 L141.704887,0.785672 L82.0520781,0.785672 L82.0520781,14.1726435 L75.4989347,0.785672 L24.6246793,0.785672 L0.99939,54.6792028 L0.99939,114.13736 L1.00185169,114.13736 Z M211.404045,97.7872512 L191.404894,97.7872512 L191.331043,34.134787 L163.043223,97.7872512 L145.914458,97.7872512 L117.552787,34.0784061 L117.552787,97.7872512 L77.874511,97.7872512 L70.3785219,79.6593152 L29.7598625,79.6593152 L22.1875597,97.7872512 L0.99939,97.7872512 L35.9338988,16.5142875 L64.9183893,16.5142875 L98.0976798,93.4630208 L98.0976798,16.5142875 L129.937785,16.5142875 L155.468458,71.6482149 L178.921427,16.5142875 L211.401583,16.5142875 L211.401583,97.7872512 L211.404045,97.7872512 Z M63.7112913,62.7923309 L50.3588303,30.3924772 L37.082683,62.7923309 L63.7112913,62.7923309 Z M290.995623,97.7872512 L225.826062,97.7872512 L225.826062,16.5142875 L290.995623,16.5142875 L290.995623,33.4385966 L245.335327,33.4385966 L245.335327,48.0880268 L289.90015,48.0880268 L289.90015,64.7475871 L245.335327,64.7475871 L245.335327,80.9781567 L290.995623,80.9781567 L290.995623,97.7872512 Z M382.833608,38.4026356 C382.833608,51.3606156 374.1486,58.0553273 369.087269,60.0654563 C373.355921,61.6833654 377.001753,64.5416719 378.737277,66.9097023 C381.491962,70.9520236 381.967077,74.5629023 381.967077,81.8214305 L381.967077,97.7872512 L362.290413,97.7872512 L362.216561,87.5380426 C362.216561,82.6475448 362.686753,75.6145431 359.136929,71.7045958 C356.286237,68.8462902 351.941271,68.2260919 344.917936,68.2260919 L323.975939,68.2260919 L323.975939,97.7872512 L304.469136,97.7872512 L304.469136,16.5142875 L349.339215,16.5142875 C359.30925,16.5142875 366.655073,16.7765845 372.962043,20.4070745 C379.133618,24.0375645 382.833608,29.3374416 382.833608,38.4026356 Z M358.172965,50.470979 C355.492133,52.0913399 352.321416,52.1452699 348.522956,52.1452699 L324.823814,52.1452699 L324.823814,34.093327 L348.845443,34.093327 C352.245102,34.093327 355.792465,34.2453131 358.096651,35.5592508 C360.627317,36.7432665 362.192981,39.263282 362.192981,42.7442378 C362.192981,46.2962838 360.70363,49.1545894 358.172965,50.470979 Z M414.120367,97.7872512 L394.214762,97.7872512 L394.214762,16.5142875 L414.120367,16.5142875 L414.120367,97.7872512 Z M645.195722,97.7872512 L617.550416,97.7872512 L580.572666,36.7871775 L580.572666,97.7872512 L540.842694,97.7872512 L533.250697,79.6593152 L492.725584,79.6593152 L485.360067,97.7872512 L462.532381,97.7872512 C453.049769,97.7872512 441.043878,95.6986772 434.244561,88.7980504 C427.388624,81.8974235 423.821567,72.5503214 423.821567,57.7709672 C423.821567,45.7175456 425.953432,34.6986044 434.338108,25.9913117 C440.645077,19.504968 450.521566,16.5142875 463.965111,16.5142875 L482.851557,16.5142875 L482.851557,33.9288719 L464.361451,33.9288719 C457.242107,33.9288719 453.222091,34.9829635 449.349779,38.7433766 C446.023972,42.1654996 443.741943,48.6346839 443.741943,57.1532208 C443.741943,65.8605125 445.479929,72.1384901 449.106068,76.2396441 C452.109386,79.455851 457.567057,80.4314997 462.70224,80.4314997 L471.463562,80.4314997 L498.958702,16.5167384 L528.189366,16.5167384 L561.21849,93.3894796 L561.21849,16.5167384 L590.921808,16.5167384 L625.213803,73.1190406 L625.213803,16.5167384 L645.195722,16.5167384 L645.195722,97.7872512 Z M526.615482,62.7923309 L513.115317,30.3924772 L499.689004,62.7923309 L526.615482,62.7923309 Z" id="Path"></path>
                <path d="M694.908287,227.558349 C690.169443,234.458977 680.935468,237.957092 668.434768,237.957092 L630.760346,237.957092 L630.760346,220.525348 L668.282141,220.525348 C672.004287,220.525348 674.608804,220.037524 676.176931,218.512767 C677.53581,217.25521 678.483578,215.428934 678.483578,213.210438 C678.483578,210.842408 677.53581,208.962201 676.100617,207.834568 C674.685118,206.59417 672.624644,206.030354 669.227447,206.030354 C650.909663,205.410156 628.057359,206.59417 628.057359,180.869417 C628.057359,169.078292 635.575503,156.666969 656.047307,156.666969 L694.905825,156.666969 L694.908287,140.492781 L658.801992,140.492781 C647.906344,140.492781 639.99186,143.091241 634.386485,147.131111 L634.386485,140.492781 L580.984025,140.492781 C572.44426,140.492781 562.420068,142.600965 557.678762,147.131111 L557.678762,140.492781 L462.315997,140.492781 L462.315997,147.131111 C454.726462,141.679248 441.920507,140.492781 436.009877,140.492781 L373.107574,140.492781 L373.107574,147.131111 C367.103398,141.340957 353.750937,140.492781 345.612434,140.492781 L275.214144,140.492781 L259.104537,157.853435 L244.016551,140.492781 L138.856074,140.492781 L138.856074,253.922913 L242.037315,253.922913 L258.636807,236.287704 L274.273761,253.922913 L337.875196,253.979294 L337.875196,227.296052 L344.128008,227.296052 C352.566841,227.425975 362.519644,227.087685 371.300659,223.307661 L371.300659,253.920461 L423.760273,253.920461 L423.760273,224.356851 L426.290938,224.356851 C429.520738,224.356851 429.838302,224.489225 429.838302,227.70298 L429.838302,253.91801 L589.201303,253.91801 C599.319042,253.91801 609.894664,251.339161 615.751136,246.659482 L615.751136,253.91801 L666.300442,253.91801 C676.819444,253.91801 687.092272,252.449635 694.908287,248.689222 L694.908287,227.558349 Z M378.926897,183.927906 C378.926897,206.509994 362.007379,211.172514 344.954927,211.172514 L320.613273,211.172514 L320.613273,238.439183 L282.695139,238.439183 L258.67351,211.527963 L233.709035,238.439183 L156.435114,238.439183 L156.435114,157.146609 L234.898055,157.146609 L258.89999,183.79308 L283.714298,157.146609 L346.0504,157.146609 C361.532264,157.146609 378.926897,161.414457 378.926897,183.927906 Z M223.829062,221.339997 L175.864579,221.339997 L175.864579,205.165809 L218.693878,205.165809 L218.693878,188.57979 L175.864579,188.57979 L175.864579,173.800436 L224.774368,173.800436 L246.112704,197.490547 L223.829062,221.339997 Z M301.113434,230.648291 L271.161481,197.535087 L301.113434,165.473523 L301.113434,230.648291 Z M345.408399,194.502317 L320.197751,194.502317 L320.197751,173.800436 L345.634879,173.800436 C352.677909,173.800436 357.566917,176.658742 357.566917,183.767736 C357.566917,190.798286 352.904388,194.502317 345.408399,194.502317 Z M477.4839,157.146609 L542.59438,157.146609 L542.59438,173.958154 L496.911928,173.958154 L496.911928,188.737509 L541.479213,188.737509 L541.479213,205.323528 L496.911928,205.323528 L496.911928,221.497714 L542.59438,221.571256 L542.59438,238.439183 L477.4839,238.439183 L477.4839,157.146609 Z M452.452415,200.661007 C456.794918,202.256854 460.344743,205.117612 462.008877,207.485642 C464.763561,211.454422 465.162362,215.158453 465.241138,222.323829 L465.241138,238.439183 L445.655559,238.439183 L445.655559,228.268419 C445.655559,223.377921 446.128213,216.136553 442.502074,212.356528 C439.651382,209.444293 435.306417,208.748102 428.189535,208.748102 L407.341085,208.748102 L407.341085,238.439183 L387.738274,238.439183 L387.738274,157.146609 L432.778213,157.146609 C442.654702,157.146609 449.847897,157.580502 456.250875,160.983014 C462.407679,164.687045 466.27999,169.761396 466.27999,179.034957 C466.277529,192.010097 457.587597,198.631267 452.452415,200.661007 Z M441.42487,190.384004 C438.815429,191.92592 435.588092,192.058295 431.792093,192.058295 L408.092952,192.058295 L408.092952,173.800436 L432.114581,173.800436 C435.588092,173.800436 439.064065,173.873978 441.42487,175.268812 C443.953074,176.585201 445.46458,179.102766 445.46458,182.58127 C445.46458,186.059775 443.953074,188.861698 441.42487,190.384004 Z M617.536604,195.562142 C621.335064,199.476992 623.370921,204.418969 623.370921,212.78552 C623.370921,230.273646 612.398959,238.436732 592.724758,238.436732 L554.727848,238.436732 L554.727848,221.004988 L592.572131,221.004988 C596.272121,221.004988 598.896333,220.517164 600.540772,218.992407 C601.882419,217.734851 602.844958,215.908574 602.844958,213.690078 C602.844958,211.322047 601.803643,209.441841 600.464459,208.314207 C598.972646,207.073811 596.914634,206.509994 593.517437,206.509994 C575.273505,205.889795 552.426124,207.073811 552.426124,181.349057 C552.426124,169.557932 559.865493,157.146609 580.317603,157.146609 L619.427218,157.146609 L619.427218,174.44843 L583.640948,174.44843 C580.093586,174.44843 577.786938,174.580805 575.824934,175.916805 C573.688146,177.233195 572.895467,179.186942 572.895467,181.765791 C572.895467,184.832464 574.709767,186.918586 577.164119,187.820693 C579.22213,188.534044 581.43277,188.742411 584.756115,188.742411 L595.257885,189.02432 C605.848277,189.281714 613.117786,191.105539 617.536604,195.562142 Z M694.948587,173.800436 L659.393721,173.800436 C655.843896,173.800436 653.485552,173.932811 651.498931,175.268812 C649.440918,176.585201 648.648239,178.538949 648.648239,181.117798 C648.648239,184.18447 650.386226,186.270593 652.914429,187.1727 C654.972441,187.886051 657.183081,188.094418 660.432574,188.094418 L671.005734,188.376326 C681.674901,188.638623 688.796706,190.464899 693.139211,194.919051 C693.929428,195.539251 694.404543,196.235441 694.948587,196.931632 L694.948587,173.800436 Z" id="Path"></path>
            </g>
        </g>
    </g>
</svg>
